doc/_static/Load/FlexibleLoad/Domain_Pconst_QU_P.svg

<?xml version="1.0" encoding="UTF-8"?>
<svg xmlns="http://www.w3.org/2000/svg" xmlns:xlink="http://www.w3.org/1999/xlink" width="126.002pt" height="126.881pt" viewBox="0 0 126.002 126.881" version="1.1">
<defs>
<g>
<symbol overflow="visible" id="glyph0-0">
<path style="stroke:none;" d="M 5 -0.265625 C 5 -0.0859375 4.898438 0 4.703125 0 L 0.6875 0 C 0.59375 0 0.53125 -0.015625 0.5 -0.046875 C 0.46875 -0.0859375 0.453125 -0.144531 0.453125 -0.21875 L 0.453125 -6.15625 C 0.453125 -6.300781 0.507812 -6.375 0.625 -6.375 L 4.84375 -6.375 C 4.945312 -6.375 5 -6.304688 5 -6.171875 Z M 4.53125 -0.65625 L 4.53125 -5.765625 C 4.53125 -5.867188 4.488281 -5.921875 4.40625 -5.921875 L 1.0625 -5.921875 C 0.96875 -5.921875 0.921875 -5.863281 0.921875 -5.75 L 0.921875 -0.640625 C 0.921875 -0.578125 0.929688 -0.53125 0.953125 -0.5 C 0.984375 -0.46875 1.039062 -0.453125 1.125 -0.453125 L 4.28125 -0.453125 C 4.445312 -0.453125 4.53125 -0.519531 4.53125 -0.65625 Z M 4.28125 -0.25 L 0.640625 -6 L 1.109375 -6.25 L 4.828125 -0.296875 Z M 4.28125 -0.25 "/>
</symbol>
<symbol overflow="visible" id="glyph0-1">
<path style="stroke:none;" d="M 0.796875 0 L 0.796875 -6.375 L 3.4375 -6.375 C 3.707031 -6.375 3.957031 -6.316406 4.1875 -6.203125 C 4.414062 -6.085938 4.613281 -5.929688 4.78125 -5.734375 C 4.957031 -5.535156 5.09375 -5.316406 5.1875 -5.078125 C 5.28125 -4.847656 5.328125 -4.613281 5.328125 -4.375 C 5.328125 -4.019531 5.25 -3.6875 5.09375 -3.375 C 4.945312 -3.070312 4.734375 -2.820312 4.453125 -2.625 C 4.179688 -2.4375 3.859375 -2.34375 3.484375 -2.34375 L 1.421875 -2.34375 L 1.421875 0 Z M 1.421875 -2.90625 L 3.46875 -2.90625 C 3.71875 -2.90625 3.929688 -2.972656 4.109375 -3.109375 C 4.296875 -3.242188 4.441406 -3.421875 4.546875 -3.640625 C 4.648438 -3.867188 4.703125 -4.113281 4.703125 -4.375 C 4.703125 -4.632812 4.640625 -4.875 4.515625 -5.09375 C 4.398438 -5.3125 4.242188 -5.484375 4.046875 -5.609375 C 3.859375 -5.742188 3.644531 -5.8125 3.40625 -5.8125 L 1.421875 -5.8125 Z M 1.421875 -2.90625 "/>
</symbol>
<symbol overflow="visible" id="glyph0-2">
<path style="stroke:none;" d="M 3.359375 0.046875 C 2.910156 0.046875 2.503906 -0.0390625 2.140625 -0.21875 C 1.773438 -0.40625 1.460938 -0.648438 1.203125 -0.953125 C 0.941406 -1.265625 0.738281 -1.613281 0.59375 -2 C 0.445312 -2.382812 0.375 -2.78125 0.375 -3.1875 C 0.375 -3.613281 0.445312 -4.019531 0.59375 -4.40625 C 0.75 -4.789062 0.960938 -5.132812 1.234375 -5.4375 C 1.503906 -5.738281 1.820312 -5.972656 2.1875 -6.140625 C 2.550781 -6.316406 2.945312 -6.40625 3.375 -6.40625 C 3.820312 -6.40625 4.226562 -6.3125 4.59375 -6.125 C 4.957031 -5.945312 5.269531 -5.703125 5.53125 -5.390625 C 5.789062 -5.078125 5.988281 -4.726562 6.125 -4.34375 C 6.269531 -3.96875 6.34375 -3.578125 6.34375 -3.171875 C 6.34375 -2.742188 6.269531 -2.335938 6.125 -1.953125 C 5.976562 -1.566406 5.769531 -1.222656 5.5 -0.921875 C 5.226562 -0.617188 4.910156 -0.378906 4.546875 -0.203125 C 4.179688 -0.0351562 3.785156 0.046875 3.359375 0.046875 Z M 3.359375 -0.515625 C 3.722656 -0.515625 4.050781 -0.59375 4.34375 -0.75 C 4.632812 -0.90625 4.882812 -1.109375 5.09375 -1.359375 C 5.300781 -1.609375 5.457031 -1.890625 5.5625 -2.203125 C 5.664062 -2.523438 5.71875 -2.851562 5.71875 -3.1875 C 5.71875 -3.53125 5.660156 -3.859375 5.546875 -4.171875 C 5.429688 -4.492188 5.269531 -4.78125 5.0625 -5.03125 C 4.851562 -5.28125 4.601562 -5.476562 4.3125 -5.625 C 4.03125 -5.769531 3.710938 -5.84375 3.359375 -5.84375 C 3.003906 -5.84375 2.679688 -5.765625 2.390625 -5.609375 C 2.097656 -5.460938 1.847656 -5.257812 1.640625 -5 C 1.441406 -4.75 1.285156 -4.460938 1.171875 -4.140625 C 1.054688 -3.828125 1 -3.507812 1 -3.1875 C 1 -2.832031 1.054688 -2.492188 1.171875 -2.171875 C 1.285156 -1.859375 1.445312 -1.578125 1.65625 -1.328125 C 1.863281 -1.078125 2.113281 -0.878906 2.40625 -0.734375 C 2.695312 -0.585938 3.015625 -0.515625 3.359375 -0.515625 Z M 3.9375 -1.953125 L 4.5625 -1.953125 L 6.203125 0 L 5.59375 0 Z M 3.9375 -1.953125 "/>
</symbol>
<symbol overflow="visible" id="glyph0-3">
<path style="stroke:none;" d="M 4.515625 -5.171875 C 4.429688 -5.273438 4.328125 -5.363281 4.203125 -5.4375 C 4.085938 -5.519531 3.953125 -5.59375 3.796875 -5.65625 C 3.648438 -5.71875 3.488281 -5.765625 3.3125 -5.796875 C 3.144531 -5.835938 2.96875 -5.859375 2.78125 -5.859375 C 2.226562 -5.859375 1.820312 -5.75 1.5625 -5.53125 C 1.300781 -5.320312 1.171875 -5.035156 1.171875 -4.671875 C 1.171875 -4.421875 1.226562 -4.222656 1.34375 -4.078125 C 1.46875 -3.929688 1.660156 -3.8125 1.921875 -3.71875 C 2.191406 -3.632812 2.53125 -3.546875 2.9375 -3.453125 C 3.382812 -3.359375 3.769531 -3.242188 4.09375 -3.109375 C 4.425781 -2.984375 4.679688 -2.804688 4.859375 -2.578125 C 5.046875 -2.359375 5.140625 -2.054688 5.140625 -1.671875 C 5.140625 -1.378906 5.082031 -1.125 4.96875 -0.90625 C 4.851562 -0.6875 4.691406 -0.503906 4.484375 -0.359375 C 4.285156 -0.222656 4.046875 -0.117188 3.765625 -0.046875 C 3.484375 0.015625 3.175781 0.046875 2.84375 0.046875 C 2.507812 0.046875 2.191406 0.015625 1.890625 -0.046875 C 1.585938 -0.117188 1.300781 -0.222656 1.03125 -0.359375 C 0.769531 -0.492188 0.519531 -0.664062 0.28125 -0.875 L 0.59375 -1.375 C 0.707031 -1.257812 0.84375 -1.148438 1 -1.046875 C 1.164062 -0.941406 1.34375 -0.847656 1.53125 -0.765625 C 1.726562 -0.679688 1.9375 -0.613281 2.15625 -0.5625 C 2.382812 -0.519531 2.617188 -0.5 2.859375 -0.5 C 3.367188 -0.5 3.765625 -0.59375 4.046875 -0.78125 C 4.328125 -0.96875 4.46875 -1.242188 4.46875 -1.609375 C 4.46875 -1.867188 4.394531 -2.078125 4.25 -2.234375 C 4.113281 -2.390625 3.898438 -2.519531 3.609375 -2.625 C 3.328125 -2.726562 2.976562 -2.828125 2.5625 -2.921875 C 2.113281 -3.023438 1.738281 -3.140625 1.4375 -3.265625 C 1.132812 -3.390625 0.90625 -3.554688 0.75 -3.765625 C 0.59375 -3.972656 0.515625 -4.242188 0.515625 -4.578125 C 0.515625 -4.972656 0.613281 -5.304688 0.8125 -5.578125 C 1.007812 -5.847656 1.273438 -6.050781 1.609375 -6.1875 C 1.953125 -6.332031 2.347656 -6.40625 2.796875 -6.40625 C 3.066406 -6.40625 3.320312 -6.378906 3.5625 -6.328125 C 3.8125 -6.273438 4.039062 -6.191406 4.25 -6.078125 C 4.457031 -5.972656 4.648438 -5.835938 4.828125 -5.671875 Z M 4.515625 -5.171875 "/>
</symbol>
<symbol overflow="visible" id="glyph1-0">
<path style="stroke:none;" d="M 3.890625 -0.203125 C 3.890625 -0.0664062 3.8125 0 3.65625 0 L 0.53125 0 C 0.457031 0 0.40625 -0.0078125 0.375 -0.03125 C 0.351562 -0.0625 0.34375 -0.109375 0.34375 -0.171875 L 0.34375 -4.78125 C 0.34375 -4.894531 0.390625 -4.953125 0.484375 -4.953125 L 3.765625 -4.953125 C 3.847656 -4.953125 3.890625 -4.898438 3.890625 -4.796875 Z M 3.53125 -0.515625 L 3.53125 -4.46875 C 3.53125 -4.550781 3.492188 -4.59375 3.421875 -4.59375 L 0.828125 -4.59375 C 0.742188 -4.59375 0.703125 -4.550781 0.703125 -4.46875 L 0.703125 -0.5 C 0.703125 -0.445312 0.710938 -0.40625 0.734375 -0.375 C 0.765625 -0.351562 0.8125 -0.34375 0.875 -0.34375 L 3.328125 -0.34375 C 3.460938 -0.34375 3.53125 -0.398438 3.53125 -0.515625 Z M 3.328125 -0.1875 L 0.5 -4.65625 L 0.859375 -4.84375 L 3.75 -0.234375 Z M 3.328125 -0.1875 "/>
</symbol>
<symbol overflow="visible" id="glyph1-1">
<path style="stroke:none;" d="M 2.265625 -0.171875 C 2.222656 -0.160156 2.160156 -0.132812 2.078125 -0.09375 C 2.003906 -0.0625 1.910156 -0.03125 1.796875 0 C 1.691406 0.03125 1.570312 0.046875 1.4375 0.046875 C 1.300781 0.046875 1.175781 0.0195312 1.0625 -0.03125 C 0.945312 -0.0820312 0.851562 -0.160156 0.78125 -0.265625 C 0.707031 -0.367188 0.671875 -0.5 0.671875 -0.65625 L 0.671875 -3.25 L 0.171875 -3.25 L 0.171875 -3.625 L 0.671875 -3.625 L 0.671875 -4.859375 L 1.15625 -4.859375 L 1.15625 -3.625 L 1.984375 -3.625 L 1.984375 -3.25 L 1.15625 -3.25 L 1.15625 -0.78125 C 1.15625 -0.65625 1.195312 -0.554688 1.28125 -0.484375 C 1.375 -0.421875 1.476562 -0.390625 1.59375 -0.390625 C 1.71875 -0.390625 1.832031 -0.410156 1.9375 -0.453125 C 2.050781 -0.503906 2.117188 -0.539062 2.140625 -0.5625 Z M 2.265625 -0.171875 "/>
</symbol>
<symbol overflow="visible" id="glyph1-2">
<path style="stroke:none;" d="M 3.578125 0 L 3.09375 0 L 3.09375 -2.03125 C 3.09375 -2.4375 3.019531 -2.742188 2.875 -2.953125 C 2.738281 -3.160156 2.535156 -3.265625 2.265625 -3.265625 C 2.085938 -3.265625 1.910156 -3.21875 1.734375 -3.125 C 1.566406 -3.03125 1.414062 -2.90625 1.28125 -2.75 C 1.144531 -2.59375 1.050781 -2.414062 1 -2.21875 L 1 0 L 0.515625 0 L 0.515625 -5.09375 L 1 -5.09375 L 1 -2.8125 C 1.144531 -3.082031 1.34375 -3.296875 1.59375 -3.453125 C 1.851562 -3.609375 2.128906 -3.6875 2.421875 -3.6875 C 2.628906 -3.6875 2.804688 -3.648438 2.953125 -3.578125 C 3.097656 -3.503906 3.21875 -3.394531 3.3125 -3.25 C 3.40625 -3.113281 3.472656 -2.953125 3.515625 -2.765625 C 3.554688 -2.578125 3.578125 -2.363281 3.578125 -2.125 Z M 3.578125 0 "/>
</symbol>
<symbol overflow="visible" id="glyph1-3">
<path style="stroke:none;" d="M 0.453125 0 L 0.453125 -0.6875 L 0.859375 -0.6875 L 0.859375 0 Z M 0.453125 0 "/>
</symbol>
</g>
<clipPath id="clip1">
  <path d="M 56 17 L 58 17 L 58 126.882812 L 56 126.882812 Z M 56 17 "/>
</clipPath>
</defs>
<g id="surface1">
<path style=" stroke:none;fill-rule:nonzero;fill:rgb(100%,100%,100%);fill-opacity:1;" d="M 0 126.882812 L 0 0 L 126.003906 0 L 126.003906 126.882812 Z M 0 126.882812 "/>
<path style="fill:none;stroke-width:0.3985;stroke-linecap:butt;stroke-linejoin:miter;stroke:rgb(0%,0%,0%);stroke-opacity:1;stroke-miterlimit:10;" d="M 45.354094 0.00071875 C 45.354094 25.047594 25.049406 45.356188 -0.001375 45.356188 C -25.04825 45.356188 -45.356844 25.047594 -45.356844 0.00071875 C -45.356844 -25.050062 -25.04825 -45.35475 -0.001375 -45.35475 C 25.049406 -45.35475 45.354094 -25.050062 45.354094 0.00071875 Z M 45.354094 0.00071875 " transform="matrix(1,0,0,-1,56.892,69.989)"/>
<path style="fill:none;stroke-width:0.3985;stroke-linecap:butt;stroke-linejoin:miter;stroke:rgb(0%,0%,0%);stroke-opacity:1;stroke-miterlimit:10;" d="M -56.692781 0.00071875 L 52.111906 0.00071875 " transform="matrix(1,0,0,-1,56.892,69.989)"/>
<path style="fill-rule:nonzero;fill:rgb(0%,0%,0%);fill-opacity:1;stroke-width:0.3985;stroke-linecap:butt;stroke-linejoin:miter;stroke:rgb(0%,0%,0%);stroke-opacity:1;stroke-miterlimit:10;" d="M 3.762865 0.00071875 C 3.298021 0.114 1.270678 0.750719 0.00114625 1.446031 L 0.00114625 -1.444594 C 1.270678 -0.753187 3.298021 -0.112562 3.762865 0.00071875 Z M 3.762865 0.00071875 " transform="matrix(1,0,0,-1,109.00276,69.989)"/>
<g style="fill:rgb(0%,0%,0%);fill-opacity:1;">
  <use xlink:href="#glyph0-1" x="117.105" y="79.875"/>
</g>
<g clip-path="url(#clip1)" clip-rule="nonzero">
<path style="fill:none;stroke-width:0.3985;stroke-linecap:butt;stroke-linejoin:miter;stroke:rgb(0%,0%,0%);stroke-opacity:1;stroke-miterlimit:10;" d="M -0.001375 -56.694594 L -0.001375 52.110094 " transform="matrix(1,0,0,-1,56.892,69.989)"/>
</g>
<path style="fill-rule:nonzero;fill:rgb(0%,0%,0%);fill-opacity:1;stroke-width:0.3985;stroke-linecap:butt;stroke-linejoin:miter;stroke:rgb(0%,0%,0%);stroke-opacity:1;stroke-miterlimit:10;" d="M 3.761053 0.001375 C 3.300115 0.11075 1.268865 0.751375 -0.00066625 1.446688 L -0.00066625 -1.447844 C 1.268865 -0.752531 3.300115 -0.111906 3.761053 0.001375 Z M 3.761053 0.001375 " transform="matrix(0,-1,-1,0,56.892,17.87824)"/>
<g style="fill:rgb(0%,0%,0%);fill-opacity:1;">
  <use xlink:href="#glyph0-2" x="46.657" y="9.731"/>
</g>
<g style="fill:rgb(0%,0%,0%);fill-opacity:1;">
  <use xlink:href="#glyph0-3" x="14.767" y="37.31"/>
</g>
<g style="fill:rgb(0%,0%,0%);fill-opacity:1;">
  <use xlink:href="#glyph1-1" x="20.209" y="33.362"/>
  <use xlink:href="#glyph1-2" x="22.54524" y="33.362"/>
  <use xlink:href="#glyph1-3" x="26.610994" y="33.362"/>
</g>
<path style="fill:none;stroke-width:0.379;stroke-linecap:butt;stroke-linejoin:miter;stroke:rgb(0%,0%,0%);stroke-opacity:1;stroke-miterlimit:10;" d="M -0.001375 0.0005 L 13.662688 0.0005 " transform="matrix(1,0,0,-1,14.767,38.688)"/>
<path style="fill:none;stroke-width:0.3985;stroke-linecap:butt;stroke-linejoin:miter;stroke:rgb(0%,0%,0%);stroke-opacity:1;stroke-miterlimit:10;" d="M -0.001375 -45.35475 L -24.946688 -45.35475 L -24.946688 45.356188 L -0.001375 45.356188 " transform="matrix(1,0,0,-1,56.892,69.989)"/>
<path style="fill:none;stroke-width:2.12599;stroke-linecap:butt;stroke-linejoin:miter;stroke:rgb(0%,0%,100%);stroke-opacity:1;stroke-miterlimit:10;" d="M -24.946688 -37.878187 L -24.946688 37.875719 " transform="matrix(1,0,0,-1,56.892,69.989)"/>
<path style="fill-rule:nonzero;fill:rgb(0%,0%,100%);fill-opacity:1;stroke-width:2.12599;stroke-linecap:butt;stroke-linejoin:miter;stroke:rgb(0%,0%,100%);stroke-opacity:1;stroke-miterlimit:10;" d="M -23.528719 27.211656 C -23.528719 27.996813 -24.161531 28.629625 -24.946688 28.629625 C -25.727938 28.629625 -26.364656 27.996813 -26.364656 27.211656 C -26.364656 26.430406 -25.727938 25.797594 -24.946688 25.797594 C -24.161531 25.797594 -23.528719 26.430406 -23.528719 27.211656 Z M -23.528719 27.211656 " transform="matrix(1,0,0,-1,56.892,69.989)"/>
</g>
</svg>

<svg xmlns="http://www.w3.org/2000/svg" xmlns:xlink="http://www.w3.org/1999/xlink" width="168.003" height="169.175" viewBox="0 0 126.002 126.881"><defs><symbol overflow="visible" id="a"><path style="stroke:none" d="M.797 0v-6.375h2.64c.27 0 .52.059.75.172.227.117.426.273.594.469.176.199.313.418.407.656.093.23.14.465.14.703 0 .355-.078.688-.234 1-.149.305-.36.555-.64.75a1.665 1.665 0 0 1-.97.281H1.422V0Zm.625-2.906h2.047c.25 0 .46-.067.64-.203a1.36 1.36 0 0 0 .438-.532c.101-.226.156-.472.156-.734 0-.258-.062-.5-.187-.719a1.361 1.361 0 0 0-.47-.515 1.087 1.087 0 0 0-.64-.204H1.422Zm0 0"/></symbol><symbol overflow="visible" id="c"><path style="stroke:none" d="M3.36.047A2.71 2.71 0 0 1 2.14-.22a2.99 2.99 0 0 1-.937-.734A3.554 3.554 0 0 1 .593-2a3.263 3.263 0 0 1-.218-1.188c0-.425.07-.832.219-1.218.156-.383.367-.727.64-1.032.27-.3.586-.535.954-.703a2.687 2.687 0 0 1 1.187-.265c.445 0 .852.093 1.219.281.363.18.676.422.937.734.258.313.457.664.594 1.047.145.375.219.766.219 1.172 0 .43-.074.836-.219 1.219A3.3 3.3 0 0 1 5.5-.922c-.273.305-.59.543-.953.719-.367.168-.762.25-1.188.25Zm0-.563c.363 0 .69-.078.984-.234.289-.156.539-.36.75-.61.207-.25.363-.53.468-.843.102-.32.157-.649.157-.985 0-.343-.059-.671-.172-.984a2.897 2.897 0 0 0-.484-.86 2.397 2.397 0 0 0-.75-.593 2.063 2.063 0 0 0-.954-.219c-.355 0-.68.078-.968.235A2.264 2.264 0 0 0 1.64-5c-.2.25-.356.54-.47.86a2.7 2.7 0 0 0-.17.951c0 .356.055.696.172 1.016.113.313.273.594.484.844.207.25.457.45.75.594.29.148.61.218.953.218Zm.578-1.437h.624L6.204 0h-.61Zm0 0"/></symbol><symbol overflow="visible" id="d"><path style="stroke:none" d="M4.516-5.172a1.223 1.223 0 0 0-.313-.266 2.259 2.259 0 0 0-.89-.36 2.329 2.329 0 0 0-.532-.061c-.554 0-.96.109-1.219.328-.261.21-.39.496-.39.86 0 .25.055.448.172.593.125.148.316.266.578.36.27.085.61.171 1.016.265.445.094.832.21 1.156.344.332.125.586.304.765.53.188.22.282.524.282.907 0 .293-.059.547-.172.766a1.55 1.55 0 0 1-.485.547 2.2 2.2 0 0 1-.718.312c-.282.063-.59.094-.922.094-.336 0-.653-.031-.953-.094a3.759 3.759 0 0 1-.86-.312 3.569 3.569 0 0 1-.75-.516l.313-.5c.113.117.25.227.406.328a3.668 3.668 0 0 0 1.156.485c.227.042.461.062.703.062.508 0 .907-.094 1.188-.281.281-.188.422-.461.422-.828 0-.258-.074-.47-.219-.625-.137-.157-.352-.286-.64-.391a8.962 8.962 0 0 0-1.047-.297 6.972 6.972 0 0 1-1.126-.344c-.304-.125-.53-.289-.687-.5-.156-.207-.234-.476-.234-.812 0-.395.097-.727.296-1 .196-.27.461-.473.797-.61a3.037 3.037 0 0 1 1.188-.218c.27 0 .523.027.765.078.25.055.477.137.688.25.207.105.398.242.578.406Zm0 0"/></symbol><symbol overflow="visible" id="e"><path style="stroke:none" d="M2.266-.172a1.48 1.48 0 0 0-.188.078A2.353 2.353 0 0 1 1.797 0a1.272 1.272 0 0 1-.36.047.907.907 0 0 1-.375-.078.65.65 0 0 1-.39-.625V-3.25h-.5v-.375h.5v-1.234h.484v1.234h.828v.375h-.828v2.469c0 .125.04.226.125.297a.545.545 0 0 0 .313.093.91.91 0 0 0 .343-.062.876.876 0 0 0 .204-.11Zm0 0"/></symbol><symbol overflow="visible" id="f"><path style="stroke:none" d="M3.578 0h-.484v-2.031c0-.406-.074-.711-.219-.922-.137-.207-.34-.313-.61-.313-.18 0-.355.047-.53.141-.169.094-.32.219-.454.375-.136.156-.23.336-.281.531V0H.516v-5.094H1v2.282c.145-.27.344-.485.594-.641.258-.156.535-.235.828-.235.207 0 .383.04.531.11a.932.932 0 0 1 .36.328c.093.137.16.297.203.484.039.188.062.403.062.641Zm0 0"/></symbol><symbol overflow="visible" id="g"><path style="stroke:none" d="M.453 0v-.688H.86V0Zm0 0"/></symbol><clipPath id="b"><path d="M56 17h2v109.883h-2Zm0 0"/></clipPath></defs><path style="stroke:none;fill-rule:nonzero;fill:#fff;fill-opacity:1" d="M0 126.883V0h126.004v126.883Zm0 0"/><path style="fill:none;stroke-width:.3985;stroke-linecap:butt;stroke-linejoin:miter;stroke:#000;stroke-opacity:1;stroke-miterlimit:10" d="M45.354 0C45.354 25.049 25.05 45.357 0 45.357c-25.047 0-45.356-20.308-45.356-45.355 0-25.051 20.309-45.356 45.356-45.356 25.05 0 45.355 20.305 45.355 45.356ZM-56.693 0H52.112" transform="matrix(1 0 0 -1 56.892 69.989)"/><path style="fill-rule:nonzero;fill:#000;fill-opacity:1;stroke-width:.3985;stroke-linecap:butt;stroke-linejoin:miter;stroke:#000;stroke-opacity:1;stroke-miterlimit:10" d="M3.763 0C3.298.115 1.27.75 0 1.447v-2.89C1.271-.755 3.298-.114 3.763 0Zm0 0" transform="matrix(1 0 0 -1 109.003 69.989)"/><use xlink:href="#a" x="117.105" y="79.875" style="fill:#000;fill-opacity:1"/><g clip-path="url(#b)"><path style="fill:none;stroke-width:.3985;stroke-linecap:butt;stroke-linejoin:miter;stroke:#000;stroke-opacity:1;stroke-miterlimit:10" d="M-.001-56.695V52.11" transform="matrix(1 0 0 -1 56.892 69.989)"/></g><path style="fill-rule:nonzero;fill:#000;fill-opacity:1;stroke-width:.3985;stroke-linecap:butt;stroke-linejoin:miter;stroke:#000;stroke-opacity:1;stroke-miterlimit:10" d="M3.761.001C3.301.111 1.27.751 0 1.447v-2.895C1.27-.753 3.3-.112 3.761.002Zm0 0" transform="matrix(0 -1 -1 0 56.892 17.878)"/><use xlink:href="#c" x="46.657" y="9.731" style="fill:#000;fill-opacity:1"/><use xlink:href="#d" x="14.767" y="37.31" style="fill:#000;fill-opacity:1"/><g style="fill:#000;fill-opacity:1"><use xlink:href="#e" x="20.209" y="33.362"/><use xlink:href="#f" x="22.545" y="33.362"/><use xlink:href="#g" x="26.611" y="33.362"/></g><path style="fill:none;stroke-width:.379;stroke-linecap:butt;stroke-linejoin:miter;stroke:#000;stroke-opacity:1;stroke-miterlimit:10" d="M-.001 0h13.664" transform="matrix(1 0 0 -1 14.767 38.688)"/><path style="fill:none;stroke-width:.3985;stroke-linecap:butt;stroke-linejoin:miter;stroke:#000;stroke-opacity:1;stroke-miterlimit:10" d="M-.001-45.355h-24.946v90.711H0" transform="matrix(1 0 0 -1 56.892 69.989)"/><path style="fill:none;stroke-width:2.12599;stroke-linecap:butt;stroke-linejoin:miter;stroke:#00f;stroke-opacity:1;stroke-miterlimit:10" d="M-24.947-37.878v75.754" transform="matrix(1 0 0 -1 56.892 69.989)"/><path style="fill-rule:nonzero;fill:#00f;fill-opacity:1;stroke-width:2.12599;stroke-linecap:butt;stroke-linejoin:miter;stroke:#00f;stroke-opacity:1;stroke-miterlimit:10" d="M-23.529 27.212a1.418 1.418 0 1 1-2.836 0c0-.782.637-1.414 1.418-1.414.785 0 1.418.632 1.418 1.414Zm0 0" transform="matrix(1 0 0 -1 56.892 69.989)"/></svg>
